svg/opsgenie.svg

<?xml version="1.0" encoding="UTF-8"?>
<svg xmlns="http://www.w3.org/2000/svg" xmlns:xlink="http://www.w3.org/1999/xlink" width="26.858999" height="32" viewBox="0 0 26.858999 32">
<defs>
<linearGradient id="linear-pattern-0" gradientUnits="userSpaceOnUse" x1="0.5" y1="0.166" x2="0.5" y2="1.193" gradientTransform="matrix(15.96094, 0, 0, 15.96094, 5.45, 0)">
<stop offset="0" stop-color="rgb(14.901961%, 51.764709%, 100%)" stop-opacity="1"/>
<stop offset="0.82" stop-color="rgb(0%, 32.156864%, 80.000001%)" stop-opacity="1"/>
</linearGradient>
<linearGradient id="linear-pattern-1" gradientUnits="userSpaceOnUse" x1="0.412" y1="0.312" x2="0.677" y2="0.787" gradientTransform="matrix(20.683599, 0, 0, 17.699221, 0, 14.281)">
<stop offset="0" stop-color="rgb(14.901961%, 51.764709%, 100%)" stop-opacity="1"/>
<stop offset="0.62" stop-color="rgb(0%, 32.156864%, 80.000001%)" stop-opacity="1"/>
</linearGradient>
</defs>
<path fill-rule="nonzero" fill="url(#linear-pattern-0)" d="M 13.429688 0 C 9.023438 0 5.453125 3.574219 5.449219 7.980469 C 5.449219 12.386719 9.023438 15.960938 13.429688 15.960938 C 17.835938 15.960938 21.410156 12.386719 21.410156 7.980469 C 21.410156 3.574219 17.835938 0 13.429688 0 "/>
<path fill-rule="nonzero" fill="url(#linear-pattern-1)" d="M 12.75 31.785156 C 7.539062 28.460938 3.203125 23.929688 0.113281 18.578125 C -0.0078125 18.363281 -0.03125 18.109375 0.0429688 17.875 C 0.113281 17.640625 0.28125 17.445312 0.503906 17.335938 L 6.546875 14.371094 C 6.96875 14.164062 7.480469 14.320312 7.710938 14.730469 C 10.769531 19.851562 15.285156 23.941406 20.683594 26.472656 C 18.691406 28.476562 16.488281 30.257812 14.109375 31.785156 C 13.695312 32.046875 13.164062 32.046875 12.75 31.785156 "/>
<path fill-rule="nonzero" fill="rgb(14.901961%, 51.764709%, 100%)" fill-opacity="1" d="M 14.109375 31.785156 C 19.320312 28.460938 23.65625 23.929688 26.746094 18.578125 C 26.863281 18.363281 26.890625 18.109375 26.820312 17.875 C 26.746094 17.640625 26.582031 17.445312 26.359375 17.335938 L 20.3125 14.371094 C 19.890625 14.164062 19.378906 14.320312 19.144531 14.730469 C 16.089844 19.851562 11.574219 23.941406 6.175781 26.472656 C 8.164062 28.480469 10.367188 30.261719 12.75 31.785156 C 13.164062 32.046875 13.691406 32.046875 14.109375 31.785156 "/>
</svg>

<svg role="img" viewBox="0 0 26.859 32" xmlns="http://www.w3.org/2000/svg"><defs><linearGradient gradientTransform="translate(5.45)scale(15.96094)" gradientUnits="userSpaceOnUse" id="opsgenie_svg__a" x1=".5" x2=".5" y1=".166" y2="1.193"><stop offset="0" stop-color="rgb(14.901961%, 51.764709%, 100%)"/><stop offset=".82" stop-color="rgb(0%, 32.156864%, 80.000001%)"/></linearGradient><linearGradient gradientTransform="matrix(20.6836 0 0 17.69922 0 14.281)" gradientUnits="userSpaceOnUse" id="opsgenie_svg__b" x1=".412" x2=".677" y1=".312" y2=".787"><stop offset="0" stop-color="rgb(14.901961%, 51.764709%, 100%)"/><stop offset=".62" stop-color="rgb(0%, 32.156864%, 80.000001%)"/></linearGradient></defs><path d="M13.43 0C9.023 0 5.453 3.574 5.45 7.98a7.98 7.98 0 0 0 7.98 7.98 7.98 7.98 0 0 0 7.98-7.98A7.98 7.98 0 0 0 13.43 0" fill="url(#opsgenie_svg__a)"/><path d="M12.75 31.785A38.5 38.5 0 0 1 .113 18.578a.9.9 0 0 1-.07-.703.9.9 0 0 1 .46-.54l6.044-2.964a.887.887 0 0 1 1.164.36 29.9 29.9 0 0 0 12.973 11.742 39 39 0 0 1-6.575 5.312 1.27 1.27 0 0 1-1.359 0" fill="url(#opsgenie_svg__b)"/><path d="M14.11 31.785a38.5 38.5 0 0 0 12.636-13.207.92.92 0 0 0 .074-.703.9.9 0 0 0-.46-.54l-6.047-2.964a.893.893 0 0 0-1.168.36 29.86 29.86 0 0 1-12.97 11.742 38.2 38.2 0 0 0 6.575 5.312c.414.262.941.262 1.36 0" fill="rgb(14.901961%, 51.764709%, 100%)"/></svg>
